packages/calcite-ui-icons/icons/sequential-navigation-24.svg

<?xml version="1.0" encoding="UTF-8"?><svg id="icons" xmlns="http://www.w3.org/2000/svg" viewBox="0 0 24 24"><defs><style>.cls-1{fill:none;}</style></defs><path d="M5,3v3h-3v15h17v-3h3V3H5ZM18,17v3H3V7h15v10ZM21,17h-2V6H6v-2h15v13ZM7.52979,16l-2.52979-2.52979,2.47021-2.47021h1.41406l-2.47021,2.47021,2.52979,2.52979h-1.41406ZM14.58594,13.52979l-2.52979-2.52979h1.41406l2.52979,2.52979-2.47021,2.47021h-1.41406l2.47021-2.47021Z"/><rect class="cls-1" x="0" width="24" height="24"/></svg>

<svg xmlns="http://www.w3.org/2000/svg" viewBox="0 0 24 24"><path d="M5 3v3H2v15h17v-3h3V3H5zm13 14v3H3V7h15v10zm3 0h-2V6H6V4h15v13zM7.53 16L5 13.47 7.47 11h1.414l-2.47 2.47L8.944 16H7.53zm7.056-2.47L12.056 11h1.414L16 13.53 13.53 16h-1.414l2.47-2.47z"/><path fill="none" d="M0 0h24v24H0z"/></svg>
